icon-svg/motion-sensor-movement.svg

<svg xmlns="http://www.w3.org/2000/svg" viewBox="0 0 24 24"><path fill="#44739e" d="M11.655 10.974a1.21 1.21 0 0 1 1.05-.612h.243V3.789c0-.982-.797-1.789-1.77-1.789H4.129c-.972 0-1.769.807-1.769 1.789v7.166c0 .982.797 1.789 1.769 1.789h6.505ZM7.659 2.739c.321 0 .593.272.593.603a.59.59 0 0 1-.593.593.58.58 0 0 1-.584-.593c0-.331.263-.603.584-.603m0 6.427c-.973 0-1.77-.807-1.77-1.789s.797-1.799 1.77-1.799 1.769.807 1.769 1.799-.797 1.789-1.769 1.789m13.252 4.754h-2.158l-1.848-2.751c-.01-.01-.019-.01-.029-.02a.8.8 0 0 0-.214-.194c-.01-.01-.019-.02-.029-.02a.9.9 0 0 0-.311-.077c-.01 0-.01-.01-.02-.01h-3.597a.71.71 0 0 0-.632.369l-1.818 3.151a.725.725 0 0 0 .622 1.088.71.71 0 0 0 .632-.369l1.604-2.79h1.974l-3.043 5.901H9.069c-.399 0-.73.331-.73.73s.331.729.73.729h3.432a.74.74 0 0 0 .651-.399l1.439-2.79 2.888 5.163a.72.72 0 0 0 .642.369.7.7 0 0 0 .359-.097.73.73 0 0 0 .282-.992l-3.364-5.999.992-1.915 1.371 2.051c.136.204.36.321.603.321h2.547c.399 0 .729-.331.729-.729s-.321-.72-.729-.72M19.56 8.719c0 1.03-.817 1.876-1.828 1.876s-1.828-.836-1.828-1.876.816-1.877 1.828-1.877 1.828.846 1.828 1.877"/></svg>

<svg xmlns="http://www.w3.org/2000/svg" viewBox="0 0 24 24"><path d="M11.655 10.974C11.869 10.595 12.277 10.362 12.705 10.362L12.948 10.362V3.789C12.948 2.807 12.151 2 11.178 2H4.129C3.157 2 2.36 2.807 2.36 3.789V10.955C2.36 11.937 3.157 12.744 4.129 12.744H10.634L11.655 10.974ZM7.659 2.739C7.98 2.739 8.252 3.011 8.252 3.342 8.252 3.672 7.989 3.935 7.659 3.935 7.328 3.935 7.075 3.672 7.075 3.342 7.075 3.011 7.338 2.739 7.659 2.739ZM7.659 9.166C6.686 9.166 5.889 8.359 5.889 7.377S6.686 5.578 7.659 5.578 9.428 6.385 9.428 7.377 8.631 9.166 7.659 9.166ZM20.911 13.92H18.753L16.905 11.169C16.895 11.159 16.886 11.159 16.876 11.149 16.818 11.071 16.75 11.013 16.662 10.955 16.652 10.945 16.643 10.935 16.633 10.935 16.633 10.935 16.633 10.935 16.633 10.935 16.536 10.887 16.429 10.867 16.322 10.858 16.312 10.858 16.312 10.848 16.302 10.848H12.705C12.442 10.848 12.199 10.984 12.073 11.217L10.255 14.368C10.051 14.718 10.177 15.165 10.517 15.359 10.634 15.427 10.76 15.456 10.877 15.456 11.13 15.456 11.373 15.33 11.509 15.087L13.113 12.297H15.087L12.044 18.198H9.069C8.67 18.198 8.339 18.529 8.339 18.928S8.67 19.657 9.069 19.657H12.501C12.773 19.657 13.026 19.501 13.152 19.258L14.591 16.468 17.479 21.631C17.615 21.874 17.858 22 18.121 22 18.237 22 18.364 21.971 18.48 21.903 18.83 21.708 18.957 21.261 18.762 20.911L15.398 14.912 16.39 12.997 17.761 15.048C17.897 15.252 18.121 15.369 18.364 15.369H20.911C21.31 15.369 21.64 15.038 21.64 14.64S21.319 13.92 20.911 13.92ZM19.56 8.719C19.56 9.749 18.743 10.595 17.732 10.595S15.904 9.759 15.904 8.719 16.72 6.842 17.732 6.842 19.56 7.688 19.56 8.719Z" fill="#44739e"/></svg>
